X:3
T:The Rose Budd
%%VWML:RutherfordSelect-4785-p3-0
F:http://www.vwml.org/record/RutherfordSelect/4785/p3
Z:Transcribed by David Jacobs February 2016
S:12 Selected Country Dances 1772, John Rutherford
L:1/8
M:C|
K:Gm
V:1     clef=treble
V:2     clef=bass
V:1 
f|B2(d/c/)B FBdB|egfd e c2d|B2(d/c/)B fgaf|bgef d(BB):|
f/g//a//|bfdf bfdB|egfd ecca|bfdf bfdB|egfe dB2a|
bfdf bfdB|egfd fc2e|dBFB GFBd|egfe d(BB):|
V:2
z|B,,2B,,2"6"D,2B,,2|"6"A,,2B,,2F,2F,,2|B,,2B,,2"6/4"C,2D,2|"6"E,2F,2B,,3:|
z|B,,2B,,2D,2B,,2|A,,2B,,2"6"C,2F,,2|B,,2B,,2D,2B,,2|A,,2A,,2B,,2F,2|B,,2B,,2"6"D,2B,,2|A,,2B,,2"6"A,,2F,,2|B,,2B,,2B,,2B,,2|"6"E,2F,2B,,3:|
W:
W:The 1st and 2nd Cu. foot it and change sides
W:The same back again .|
W:Lead down two Cu. foot it .|.
W:Lead up again and cast off :|:
W:Foot it corners and turn .||.
W:Lead outsides and turn:||:

